X:1
T:Title
%%score { ( 1 3 ) | ( 2 4 ) }
L:1/8
M:3/4
K:Eb
V:1 treble nm="Grand Piano"
V:3 treble 
V:2 bass 
V:4 bass 
V:1
 z2 z2[Q:1/4=100] G>F | E2 E2 F[DF] | [EG]2 [GB]2 cc | B2 G2 F>E |[M:2/4] [DF]4 |[M:1/4] GF | %6
[M:3/4] E2 E2 [DF]>[DF] | [EG]2 [GB]2 ce | B2 G2 [B,EF]>[A,DF] |[M:2/4] [G,E]4 | %10
[M:1/4] [B,GB][B,EG] |[M:3/4] [B,GB]2 [GB]-[EGB] ce | c2 [GB]2 [Ac][GB] | [GB]2 [EG]2 [EF][E=A] | %14
[M:2/4] [DB]4 |[M:1/4] GF |[M:3/4] E2 E2 [DF][DF] | [EG]2 [GB]2 ce | B2 G2 [DF][DF] | E6 |] %20
V:2
 z2 z2 [E,B,E]>[E,B,D] | [E,G,]2 [E,G,B,]2 [B,,A,B,][B,,A,] | %2
 [E,B,]2 [E,B,]2[K:treble] [A,A][A,CA] | [G,EG]2[K:bass] [E,B,E]2 [D,B,]>[C,=A,C] |[M:2/4] B,2 z2 | %5
[M:1/4] [E,G,E][E,A,D] |[M:3/4] [E,G,]2 [E,G,B,]2 [B,,B,]>[B,,B,] | %7
 [E,B,]2 [E,E]2[K:treble] [A,EA][A,CA] | [B,EG]2[K:bass] [B,E]2 B,,>B,, |[M:2/4] E,4 | %10
[M:1/4] E,E, |[M:3/4] E,2 G,2[K:treble] [A,EA][A,CA] | [A,EA]2[K:bass] [E,B,]2 [E,E][E,E] | %13
 [E,B,]2 [E,B,]2 [C,C][C,F,] |[M:2/4] [B,,F,]4 |[M:1/4] [E,G,E][E,A,E] | %16
[M:3/4] [E,G,]2 [E,G,]2 [B,,A,][B,,B,] | [E,B,]2 [E,E]2[K:treble] [A,EA][A,CA] | %18
 [B,G]2[K:bass] [B,E]2 [B,,B,][B,,A,] | [E,G,]6 |] %20
V:3
 x6 | x6 | x6 | x6 |[M:2/4] z2 A,2 |[M:1/4] x2 |[M:3/4] x6 | x6 | x6 |[M:2/4] x4 |[M:1/4] x2 | %11
[M:3/4] z2 .B,2 z2 | x6 | x6 |[M:2/4] x4 |[M:1/4] x2 |[M:3/4] x6 | x6 | x6 | x6 |] %20
V:4
 x6 | x6 | x4[K:treble] x2 | x2[K:bass] x4 |[M:2/4] B,,4 |[M:1/4] x2 |[M:3/4] x6 | %7
 x4[K:treble] x2 | x2[K:bass] x4 |[M:2/4] x4 |[M:1/4] x2 |[M:3/4] x4[K:treble] x2 | x2[K:bass] x4 | %13
 x6 |[M:2/4] x4 |[M:1/4] x2 |[M:3/4] x6 | x4[K:treble] x2 | x2[K:bass] x4 | x6 |] %20

